usr/share/icons/biglinux-icons-material-dark/16/actions/quickopen-file.svg

<svg xmlns="http://www.w3.org/2000/svg" viewBox="0 0 16 16">
<defs id="defs3051">
<style id="current-color-scheme" type="text/css">
.ColorScheme-Text{color:#dedede}
</style>
</defs>
<path d="M5 2 3 5h1v2l2-3H5zm3 0v1h4v7H9v3H4V8H3v6h7l3-3V2z" class="ColorScheme-Text" style="fill:currentColor;fill-opacity:1;stroke:none"/>
</svg>

<svg xmlns="http://www.w3.org/2000/svg" viewBox="0 0 16 16">
  <defs id="defs3051">
    <style type="text/css" id="current-color-scheme">
      .ColorScheme-Text {
        color:#dedede;
      }
      </style>
  </defs>
 <path style="fill:currentColor;fill-opacity:1;stroke:none" 
     d="M 5 2 L 3 5 L 4 5 L 4 7 L 6 4 L 5 4 L 5 2 z M 8 2 L 8 3 L 12 3 L 12 10 L 9 10 L 9 13 L 4 13 L 4 8 L 3 8 L 3 14 L 9 14 L 10 14 L 13 11 L 13 10 L 13 2 L 8 2 z "
     class="ColorScheme-Text"
     />
</svg>
